X: 762
T: Air Tune, The
R: reel
M: 4/4
K: Dmajor
|:Affe f2de|fade f2ed|Beed faed|BA A2 BAFG|
Affg a3g|fade f2ed|Bdde dA (3Bcd|1 fgec d3B:|2 fgec d3g||
|:abga fgef|edcd FADA|Beed fded|BA A2 BAFG|
abga fgef|edcd FADA|GBBA BdcB|1 Affe defg:|2 Affe d3B||

